front_end/Images/src/eye.svg

<svg width="20" height="20" viewBox="0 0 20 20" fill="none" xmlns="http://www.w3.org/2000/svg">
<path d="M10 13.5C10.972 13.5 11.7983 13.1597 12.479 12.479C13.1597 11.7983 13.5 10.972 13.5 10C13.5 9.028 13.1597 8.20167 12.479 7.521C11.7983 6.84033 10.972 6.5 10 6.5C9.028 6.5 8.20167 6.84033 7.521 7.521C6.84033 8.20167 6.5 9.028 6.5 10C6.5 10.972 6.84033 11.7983 7.521 12.479C8.20167 13.1597 9.028 13.5 10 13.5ZM10 12C9.44467 12 8.97233 11.8057 8.583 11.417C8.19433 11.0277 8 10.5553 8 10C8 9.44467 8.19433 8.97233 8.583 8.583C8.97233 8.19433 9.44467 8 10 8C10.5553 8 11.0277 8.19433 11.417 8.583C11.8057 8.97233 12 9.44467 12 10C12 10.5553 11.8057 11.0277 11.417 11.417C11.0277 11.8057 10.5553 12 10 12ZM10 16C8.014 16 6.20833 15.455 4.583 14.365C2.95833 13.2743 1.764 11.8193 1 10C1.764 8.18067 2.95833 6.72567 4.583 5.635C6.20833 4.545 8.014 4 10 4C11.986 4 13.7917 4.545 15.417 5.635C17.0417 6.72567 18.236 8.18067 19 10C18.236 11.8193 17.0417 13.2743 15.417 14.365C13.7917 15.455 11.986 16 10 16ZM10 14.5C11.5553 14.5 12.9927 14.0973 14.312 13.292C15.632 12.486 16.646 11.3887 17.354 10C16.646 8.61133 15.632 7.514 14.312 6.708C12.9927 5.90267 11.5553 5.5 10 5.5C8.44467 5.5 7.00733 5.90267 5.688 6.708C4.368 7.514 3.354 8.61133 2.646 10C3.354 11.3887 4.368 12.486 5.688 13.292C7.00733 14.0973 8.44467 14.5 10 14.5Z" fill="black"/>
</svg>

<svg width="20" height="20" fill="none" xmlns="http://www.w3.org/2000/svg"><path d="M10 13.5c.972 0 1.798-.34 2.479-1.021.68-.68 1.021-1.507 1.021-2.479 0-.972-.34-1.798-1.021-2.479C11.799 6.841 10.972 6.5 10 6.5c-.972 0-1.798.34-2.479 1.021C6.841 8.201 6.5 9.028 6.5 10c0 .972.34 1.798 1.021 2.479.68.68 1.507 1.021 2.479 1.021Zm0-1.5a1.931 1.931 0 0 1-1.417-.583A1.931 1.931 0 0 1 8 10c0-.555.194-1.028.583-1.417C8.973 8.194 9.445 8 10 8s1.028.194 1.417.583c.389.39.583.862.583 1.417s-.194 1.028-.583 1.417c-.39.389-.862.583-1.417.583Zm0 4c-1.986 0-3.792-.545-5.417-1.635A9.64 9.64 0 0 1 1 10a9.64 9.64 0 0 1 3.583-4.365C6.208 4.545 8.014 4 10 4c1.986 0 3.792.545 5.417 1.635A9.639 9.639 0 0 1 19 10a9.64 9.64 0 0 1-3.583 4.365C13.792 15.455 11.986 16 10 16Zm0-1.5a8.123 8.123 0 0 0 4.312-1.208A8.084 8.084 0 0 0 17.354 10a8.085 8.085 0 0 0-3.042-3.292A8.123 8.123 0 0 0 10 5.5a8.123 8.123 0 0 0-4.312 1.208A8.085 8.085 0 0 0 2.646 10a8.084 8.084 0 0 0 3.042 3.292A8.123 8.123 0 0 0 10 14.5Z" fill="#000"/></svg>
